X:1
T:Jungfrun under lind
T:W. Peterson-Berger (1867-1942)
T:Text: E. von der Recke
T:Jungfrun under lind
T:©PA Aglert Edition may be freely distributed, duplicated, performed and recorded
T:©PA Aglert Edition may be freely distributed, duplicated, performed and recorded
T:©PA Aglert Edition may be freely distributed, duplicated, performed and recorded
T:©PA Aglert Edition may be freely distributed, duplicated, performed and recorded
T:©PA Aglert Edition may be freely distributed, duplicated, performed and recorded
T:©PA Aglert Edition may be freely distributed, duplicated, performed and recorded
C:W. Peterson-Berger (1867-1942)
Z:E. von der Recke
Z:©PA Aglert
Z:Edition may be freely distributed, duplicated, performed and recorded
%%score [ 1 2 3 4 ]
L:1/8
Q:1/4=100
M:4/4
K:G
V:1 treble nm="S"
V:2 treble nm="A"
V:3 treble-8 nm="T"
V:4 bass nm="B"
V:1
"^Andante" z2 | z8 | z4 z2!p! B2 | B2 B2 B2 dB | A2 (FE) D3"^cresc." E | F2 GA!f! (B2!<(! g)!<)!f | %6
w: ||I|vå- ren knop- pas en|lind så * grön med|ro- sor och mars- * vi-|
!>(! (e4!>)! d2)!p! D2 | B2 B2 B2 dB | A2 (FE) D3!mf! G | B2 ^cd (e2 f)A |!>(! d4-!>)! d z z2 | %11
w: ol. * Där-|un- der sit- ter en|jung- fru * skön och|söm- mar i kla- * ran|sol. *|
!mp! e2 cG E2 FG | d3 d B3 B |!p! B2 AG (A2 F)E |!>(! D4-!>)! D z z2 |!mf! e2 cG E2 FG | %16
w: Själv är hon lik- som en|sol i vår, som|äpp- let är hen- * nes|kind. *|När hon vid spe- geln slår|
 d3 d B3 B |!p! B2"^cresc." GA B2 fe |!f!!>(! d6!>)!!p! D2 |"^cresc." B2 B2 B2 dB | (A2 F)E D3 E | %21
w: ut sitt hår, det|fal- ler som bloms- ter från|lind. Som|so- len fång- as av|lin- * dens blad så|
 F2 GA (B2 g)f |!f! (e4 d2) z!p! D | B2 AG c2 cG | (B2 A)F E3 D |!mp! D2"^cresc." EF G2 Be | %26
w: fängs- lar hon själ * och|sinn, * så|har hon mig bun- dit med|trol- * ska kvad, så|har hon mig bun- dit med|
!ff! g3 g f3 e |!mf! e4 A2 B2 | c4 E4 | z4!p! (G2"^dolce" A2) | B4 D4 |!>(! G3 G"^rit." AGF!>)!G | %32
w: trol- ska kvad och|ta- git mitt|hjär- ta,|mitt *|hjär- ta|in, mitt hjär- * * ta|
!pp! d8- |!>(! d2!>)! z2 z4 |] %34
w: in.||
V:2
 z2 | z8 | z4 z2!p! G2 | G2 G2 E2 EE | F2 D2 D3"^cresc." D | (D2 G4)!f!!<(! BA!<)! | %6
w: ||I|vå- ren knop- pas en|lind så grön med|ro- * sor och|
!>(! (GEF)G!>)! F2!p! D2 | D2 G2 E2 EE | F2 D2 D2!mf! D2 | G2 GG (G2 A)G |!>(! F4-!>)! F z z2 | %11
w: mars- * * vi- ol. Där-|un- der sit- ter en|jung- fru skön och|söm- mar i kla- * ran|sol. *|
!mp! E2 EE C2 EC | (D2 E)F G3 G |!p! G2 FE (F2 D)C |!>(! (B,D-) D2-!>)! D z z2 |!mf! E2 EE C2 EC | %16
w: Själv är hon lik- som en|sol * i vår, som|äpp- let är hen- * nes|kind. * * *|När hon vid spe- geln slår|
 (D2 E)F G3 G |!p! G2"^cresc." EF G2 AG |!f!!>(! F6!>)!!p! (DC) |"^cresc." B,2 B,2 C2 CC | %20
w: ut * sitt hår, det|fal- ler som bloms- ter från|lind. Som *|so- len fång- as av|
 C3 C B,3 D | D2 EF G2 BA |!f! (GEF)G F2!p! D2 | D2 DD C2 CC | C3 C C3 C | %25
w: lin- dens blad så|fängs- lar, så fäng- slar hon|själ * * och sinn, så|har hon mig bun- dit med|trol- ska kvad, så|
!mp! (B,"^cresc."D)B,D (EG)GG |!ff! B3 B A3 G |!mf! F4 E2 [DE]2 | [CE]4 E4 |!mp! [C_E]8 | %30
w: har * hon mig bun- * dit med|trol- ska kvad och|ta- git mitt|hjär- ta,|mitt|
 [CD]4 C4 |!p! z!>(! B,2 [B,D] z C2!>)! [C_E] |!pp! z!>(! [DG]3- [DG]4-!>)! | [DG]2 z2 z4 |] %34
w: hjär- ta|in, mitt hjär- ta|in. *||
V:3
!p! [GB]2 | [Bd]2 ([Bd][GB]) [Bd]2 [Bd][GB] | [Bd]2 ([Bd][GB]) [Bd]4- | [Bd]2 (dB) c2 c2 | %4
w: I|vå- ren * knop- pas en|lind så * grön,|* en * lind så|
 (d2 c4)"^cresc." B2 | B2 Bd!f!!<(! ^c3!<)! c |!>(! !courtesy!=c6!>)!!p! (cA) | d2 dB c2 c2 | %8
w: grön * med|ro- sor och mars- vi-|ol. Där- *|un- der en jung- fru|
 (d2 c4!mf! B2) | d2 ed ^c3 c |!>(! (d2 f)A!>)! d3 z |!mp! z EFG e2 cG | (Dd^c)=c (eBe)B | %13
w: skön * *|söm- mar i kla- ran,|kla- * ran sol.|Själv är hon lik- som en|sol * * i vår, * * som|
!p! c4- c3 F |!<(! (GB)A!<)!G!>(! (AF!>)!D) z |!mf! z EFG e2 cG | (Dd^c)=c (eBe)B | %17
w: äpp- * let|är * hen- nes kind. * *|När hon vid spe- geln slår|ut * * sitt hår, * * det|
!p! ^c6"^cresc." cc |!f!!>(! !courtesy!=c2 AB!>)! c2!p! (BA) |"^cresc." D2 D2 E2 EE | (FDF)A B3 B | %21
w: fal- ler som|bloms- ter från lind. Som *|so- len fång- as av|lin- * * dens blad så|
 B2 Bc ^c3 c |!f! !courtesy!=c4- c3!p! F | =F2 FF E2 EE | ^D3 =D E3 E | %25
w: fäng- slar hon själ och|sinn, * så|har hon mig bun- dit med|trol- ska kvad, så|
!mp! (G"^cresc."B)BB (Be)eB |!ff! [^cg]3 [cg] [cg]3 c |!mf! !courtesy!=c4 F2 ^G2 | A4 c4 |!mp! G8 | %30
w: har * hon mig bun- * dit med|trol- ska kvad och|ta- git mitt|hjär- ta,|mitt|
 F4 F4 |!p! z!>(! [DG]2 [DG] z [_EA]2!>)! [EA] |!pp! z!>(! [DB]3- [DB]4-!>)! | [DB]2 z2 z4 |] %34
w: hjär- ta|in, mitt hjär- ta|in. *||
V:4
!p! D,2 | [G,,D,]6 [G,,D,]2 | [G,,D,]4 [G,,D,]2 [G,,G,]2 | [G,,G,]6 [G,,G,]2 | %4
w: I|vå- ren|knop- pas en|lind så|
 [G,,G,]6"^cresc." G,2 | F,2 E,E,!f!!<(! (A,,2 A,)!<)!A, |!>(! D,6!>)!!p! D,2 | %7
w: grön med|ro- sor och mars- * vi-|ol. Där-|
 [G,,G,]4 [G,,G,]2 [G,,G,]2 | [G,,G,]6!mf! G,2 | E,2 E,E, (A,,2 A,)A, |!>(! D,6!>)!!mp! (D,^C,) | %11
w: un- der en|jung- fru|söm- mar i kla- * ran|sol. Hon *|
 !courtesy!=C,3 B,, (A,,G,)F,E, | D,3 D, E,3 E, |!p! A,,4 D,4 | %14
w: själv är lik- * som en|sol i vår, som|äpp- let|
!<(! (D,G,)D,!<)!B,,!>(! D,2!>)!!mf! D,^C, | !courtesy!=C,3 B,, (A,,G,F,)E, | D,3 D, E,3 E, | %17
w: är * hen- nes kind. När vid|spe- geln hon * * slår|ut sitt hår, det|
!p! A,,2"^cresc." A,,A,, A,,2 A,,A,, |!f!!>(! D,6!>)!!p! D,2 |"^cresc." G,,G,,G,,G,, G,,G,,G,,G,, | %20
w: fal- ler som bloms- ter från|lind. Som|so- len fång- as ut- av lin- dens|
 G,,3 G,, G,,G, G,2 | F,E, E,3 A,, A,2- |!f! A,3 A, D,!p!D,D,D, | G,,G,,G,,G,, G,,G,,G,,G,, | %24
w: blad så fäng- slar hon|själ och sinn, ja själ|* och sinn, så har hon|bun- dit mig med trol- ska kvad, ja|
 G,,G,,G,,G,, G,,G,,G,,G,, |!mp! (G,,"^cresc."G,)G,F, E,2 E,E, |!ff! A,,A,A,A, A,A,A,A, | %27
w: bun- dit mig med trol- ska kvad, så|har * hon mig bun- dit, ja|bun- dit mig med trol- ska kvad och|
!mf! A,4 C,2 B,,2 | A,,4 A,4 |!mp! A,,8 | D,4 D,4 |!p! G,,8- |!pp!!>(! G,,8-!>)! | %33
w: ta- git mitt|hjär- ta,|mitt|hjär- ta|in.||
!>(! G,,2 z2 z4!>)! |] %34
w: |

